src/assets/svgs/phone.svg

<svg xmlns="http://www.w3.org/2000/svg" width="16" height="17" viewBox="0 0 16 17" fill="none">
<path d="M12.96 9.16667C12.8133 9.16667 12.66 9.12 12.5133 9.08667C12.2163 9.02122 11.9245 8.93432 11.64 8.82667C11.3307 8.71415 10.9908 8.71999 10.6855 8.84307C10.3803 8.96614 10.1314 9.19776 9.98667 9.49333L9.84001 9.79333C9.19067 9.43212 8.594 8.98349 8.06667 8.46C7.54319 7.93268 7.09455 7.336 6.73334 6.68667L7.01334 6.5C7.30892 6.35528 7.54053 6.10635 7.6636 5.80113C7.78668 5.4959 7.79252 5.15594 7.68001 4.84667C7.57415 4.56161 7.4873 4.26986 7.42001 3.97333C7.38667 3.82667 7.36001 3.67333 7.34001 3.52C7.25905 3.05041 7.01309 2.62516 6.64642 2.32082C6.27975 2.01649 5.81647 1.85307 5.34001 1.86H3.34001C3.05269 1.8573 2.76817 1.91654 2.50581 2.03369C2.24345 2.15083 2.00941 2.32313 1.81963 2.53885C1.62984 2.75458 1.48876 3.00866 1.406 3.28381C1.32323 3.55895 1.30073 3.8487 1.34001 4.13333C1.69516 6.92625 2.97069 9.52125 4.96511 11.5084C6.95952 13.4956 9.55915 14.7617 12.3533 15.1067H12.6067C13.0983 15.1074 13.5729 14.927 13.94 14.6C14.1509 14.4114 14.3194 14.1801 14.4343 13.9215C14.5492 13.663 14.608 13.383 14.6067 13.1V11.1C14.5985 10.6369 14.4299 10.191 14.1296 9.83844C13.8293 9.48585 13.4159 9.24842 12.96 9.16667V9.16667ZM13.2933 13.1667C13.2932 13.2613 13.2729 13.3549 13.2339 13.4411C13.1948 13.5273 13.1378 13.6042 13.0667 13.6667C12.9924 13.7313 12.9053 13.7796 12.8111 13.8083C12.7169 13.837 12.6177 13.8456 12.52 13.8333C10.0233 13.5132 7.70416 12.371 5.92848 10.5869C4.1528 8.80273 3.02161 6.47822 2.71334 3.98C2.70273 3.88234 2.71203 3.78355 2.74067 3.68959C2.76932 3.59563 2.81672 3.50846 2.88001 3.43333C2.94248 3.36222 3.01938 3.30523 3.10559 3.26614C3.1918 3.22706 3.28535 3.20679 3.38001 3.20667H5.38001C5.53504 3.20322 5.68642 3.25392 5.8081 3.35005C5.92978 3.44617 6.01415 3.58171 6.04667 3.73333C6.07334 3.91555 6.10667 4.09555 6.14667 4.27333C6.22369 4.62476 6.32618 4.97012 6.45334 5.30667L5.52001 5.74C5.4402 5.77661 5.36842 5.82863 5.30878 5.89306C5.24913 5.9575 5.20281 6.03307 5.17245 6.11546C5.1421 6.19785 5.12832 6.28542 5.1319 6.37315C5.13549 6.46087 5.15637 6.54703 5.19334 6.62666C6.15281 8.68184 7.80484 10.3339 9.86001 11.2933C10.0223 11.36 10.2044 11.36 10.3667 11.2933C10.4498 11.2636 10.5262 11.2176 10.5915 11.1581C10.6567 11.0986 10.7094 11.0267 10.7467 10.9467L11.16 10.0133C11.5047 10.1366 11.8564 10.239 12.2133 10.32C12.3911 10.36 12.5711 10.3933 12.7533 10.42C12.905 10.4525 13.0405 10.5369 13.1366 10.6586C13.2328 10.7802 13.2835 10.9316 13.28 11.0867L13.2933 13.1667Z" fill="#4E4B66"/>
</svg>

<svg xmlns="http://www.w3.org/2000/svg" width="16" height="17" fill="none"><path d="M12.96 9.167c-.147 0-.3-.047-.447-.08a6.296 6.296 0 0 1-.873-.26 1.333 1.333 0 0 0-1.653.666l-.147.3A8.12 8.12 0 0 1 8.067 8.46a8.12 8.12 0 0 1-1.334-1.773l.28-.187a1.333 1.333 0 0 0 .667-1.653 6.886 6.886 0 0 1-.26-.874c-.033-.146-.06-.3-.08-.453a2 2 0 0 0-2-1.66h-2a2 2 0 0 0-2 2.273 12.666 12.666 0 0 0 11.013 10.974h.254a2 2 0 0 0 1.827-1.185 2 2 0 0 0 .173-.822v-2a2 2 0 0 0-1.647-1.933Zm.333 4a.668.668 0 0 1-.482.641.7.7 0 0 1-.291.025A11.333 11.333 0 0 1 2.713 3.98a.727.727 0 0 1 .167-.547.667.667 0 0 1 .5-.226h2a.667.667 0 0 1 .667.526 7.415 7.415 0 0 0 .407 1.573l-.934.434a.667.667 0 0 0-.327.887 9.66 9.66 0 0 0 4.667 4.666.667.667 0 0 0 .507 0 .667.667 0 0 0 .38-.346l.413-.934a9.12 9.12 0 0 0 1.053.307c.178.04.358.073.54.1a.666.666 0 0 1 .527.667l.013 2.08Z" fill="#4E4B66"/></svg>
